X:0157
T:Quick Step 30th. Regt.
M:2/4
L:1/8
Q:1/4=84
I: :: ::
Z:Jack Campin * www.campin.me.uk * 2009
K:D
fd a2|gb e2|fa  (g/f/)(e/d/)| cdeA         |
fd a2|gb e2|f>a (g/f/e/d/)  | Ac        d2:|
dATBA|dATBA|dA  (B/c/d/B/)  |(b/a/g/f/) e2 |
fd a2|gb e2|f>a (g/f/e/d/)  | Ac        d2:|
<end>
<start>
